X: 1987
T:Blanchard's Hornpipe. WM044
T:Egg Hornpipe. WM044
T:Peckhover Walk Hornpipe. WM044
M:4/4
L:1/8
Q:200
S:Wm.Mittell,1799
R:Hornpipe
O:England
A:Kent
N:a.k.a..China Orange Hornpipe.Works nicely as a dotted rhythm HP.Name
Z:C.G.P
K:D
dAFA GBAG|FAFA GBAG|FDFD GEGE|AFED DCB,A,|
dAFA GBAG|!FAFA GBAG|FAdg fedc|d2d2d4:|
|:ecAc ecge|fdBd fdaf|!""ecAc ecgf|edcBA2A2|
BGDG BGdB|AFDF AFdA|FAdg fedc|d2d2d4:|]
